data/playwrite-co.svg

<svg width="102.83" height="27.678" viewBox="0 0 102.83 27.678" xmlns="http://www.w3.org/2000/svg"><path transform="translate(0 20.328) scale(.014 -.014)" d="m474 385q-20-1-27.5 10t-3.5 34q4 20 14 29.5t28 9.5q99 5 180.5 32.5t141 75 91.5 109 32 133.5q0 63-34 98.5t-96 35.5q-37 0-77.5-17t-80-48.5-77-77-70-102-57.5-121.5l-185-572q-4-14-16-21t-35-7q-22 0-32.5 7t-6.5 23l256 789q-24-24-52-45t-58.5-39-64.5-36q-22-10-35.5-2.5t-20.5 27.5q-7 18-1.5 31.5t25.5 21.5q67 32 117 66.5t87.5 78.5 65.5 99q9 16 19.5 22t33.5 6q22 0 32.5-7t5.5-23l-40-126q44 52 92.5 86.5t99 52 99.5 17.5q60 0 104-26t68.5-72.5 24.5-108.5q0-93-40.5-172t-113.5-138-173-94-220-39z"/><path transform="translate(12.376 20.328) scale(.014 -.014)" d="m-147-17q-19 0-25 11.5t-2.5 26 16 26 30.5 11.5q31 0 71.5 20t86 56.5 93.5 84.5 95 105.5 91 119 81 124 65 122 43.5 113 15.5 96.5q0 15 13 22.5t30.5 7.5 30.5-7.5 13-22.5q0-45-17-102.5t-49-122-74.5-133-92.5-136-104.5-129.5-110-115.5-109.5-93.5-102.5-62-88.5-22zm319 1q-43 0-64.5 15.5t-27.5 41.5-1.5 58 14.5 64l229 707q29 89 70.5 129t99.5 40q34 0 58.5-17.5t37.5-48.5 13-74q0-19-13-28t-30.5-9-30.5 9-13 28q0 18-4 30.5t-12 19-21 6.5q-11 0-23-9t-24-29.5-24-58.5l-239-743q-4-13-6-26t3-21.5 19-8.5 26 7 22.5 18.5 18.5 22.5q5 9 15.5 12t25.5-7q17-10 17.5-20.5t-4.5-21.5q-10-17-28.5-37.5t-44.5-34.5-59-14z"/><path transform="translate(17.892 20.328) scale(.014 -.014)" d="m180-17q-43 0-74 19.5t-47.5 56.5-16.5 87q0 44 12.5 95t38 100 64 89.5 90.5 64.5 118 24q33 0 65-10t60-27l1 4q7 18 16.5 23.5t27.5 5.5q32 0 40-9.5t2-29.5l-119-361q-4-13-6-26t3-21.5 20-8.5q13 0 25 7t22.5 18.5 18.5 22.5q6 9 16.5 12t25.5-7q16-10 17-20.5t-5-21.5q-9-17-27.5-37.5t-44.5-34.5-59-14q-31 0-50 9t-28.5 24-12.5 34-1 39q0 3 0 5.5t1 4.5q-35-44-70-70t-66.5-36.5-56.5-10.5zm-48 174q0-31 8.5-51.5t26-31.5 41.5-11q34 0 69 22.5t70 65.5 68 102l53 162q-27 15-52 20t-50 5q-50 0-89-19t-66.5-51-45-70-25.5-75.5-8-67.5z"/><path transform="translate(26.6 20.328) scale(.014 -.014)" d="m422-15q19 12 38 23t37.5 21 35.5 18.5 31 14.5q15 7 24-0.5t12-21-0.5-26.5-15.5-19q-19-9-40-21t-43.5-24-44-25.5-43.5-26.5zm-295-524q-60 0-95 33.5t-35 85.5q0 45 18 85t52 77.5 81 73.5 104 71q19 12 37.5 23.5t37 22.5 37.5 22l46 143q-23-27-47.5-49t-50.5-36-52-21.5-51-7.5q-54 0-85.5 24t-39 68.5 12.5 104.5l70 217q6 21 0.5 32t-21.5 11q-14 0-27-8t-27.5-25.5-31.5-46.5q-9-13-17-18t-27-2q-20 5-23.5 18t3.5 28q18 36 41.5 65.5t53.5 46.5 66 17q33 0 54.5-11.5t32-32.5 10-48.5-10.5-58.5l-60-190q-12-38-11-63t17.5-37.5 50.5-12.5q26 0 55.5 15t60 43 58.5 66 52 85l68 212q7 20 16.5 26t28.5 6q31 0 39.5-9.5t1.5-29.5l-243-747q-24-73-49.5-124t-55.5-83-65.5-46.5-79.5-14.5zm14 77q30 0 57.5 21.5t51.5 64.5 42 107l39 122q-10-6-20.5-12.5t-20-12.5-18.5-12q-44-29-79-57.5t-59-56-36.5-54.5-12.5-55q0-18 6.5-30.5t19.5-18.5 30-6z"/><path transform="translate(35.91 20.328) scale(.014 -.014)" d="m184-19q-48 0-76 18.5t-39 48.5-9 66.5 14 73.5l96 295q7 19 16 25.5t30 6.5q31 0 39-9.5t2-28.5l-96-295q-9-27-12-55.5t9-47.5 49-19q20 0 42.5 9.5t44.5 28.5 42 46 35 63l90 276q7 19 16 25.5t29 6.5q32 0 39.5-9t1.5-28l-77-244q-9-29-18.5-59.5t-10.5-56.5 13-41.5 49-15.5q38 0 70.5 19.5t58 53 44 74 28 83 9.5 79.5q0 17-1 33t-3 31.5-6 29.5q-3 18 0.5 30t14.5 18.5 28 6.5 27.5-11.5 16.5-37.5q4-15 6.5-31.5t3.5-33.5 1-35q0-45-13-97.5t-39.5-104-64-94-86.5-68-108-25.5q-44 0-72.5 13t-42.5 35.5-18 50.5q-21-32-47.5-54.5t-58-33.5-67.5-11z"/><path transform="translate(47.922 20.328) scale(.014 -.014)" d="m-148-17q-19 0-25 11.5t-2.5 26 16 26 31.5 11.5q34 0 69 23.5t72 71.5 74.5 119.5 75.5 168.5l57-26q-47-121-90.5-204t-87-133.5-90-72.5-100.5-22zm557 1q-38 0-60 12t-30.5 33-6.5 47 10 53q8 24 21 54.5t28 64.5 28.5 68 22.5 64q8 29 0 39t-25 10q-25 0-56-10t-64-19.5-63-9.5q-22 0-37 14.5t-22.5 36.5-7.5 47q0 24 8 46t23.5 36.5 38.5 14.5q24 0 35-14t11-33q0-16-5.5-35t-15.5-34q18 0 49 11t68 22 72 11q29 0 50.5-13.5t29.5-44.5-6-83q-8-28-21.5-62t-29-69.5-30-69.5-23.5-64q-8-26-2.5-37t21.5-11q14 0 26 7t22 18.5 18 22.5q6 9 16.5 12t25.5-7q16-10 17-20.5t-5-21.5q-9-17-27.5-37.5t-44.5-34.5-59-14z"/><path transform="translate(55.874 20.328) scale(.014 -.014)" d="m142-16q-64 0-85.5 44.5t4.5 123.5l107 331q7 20 16.5 26t28.5 6q31 0 39.5-9.5t1.5-29.5l-116-357q-9-29-4.5-44.5t22.5-15.5q13 0 25 7t22 18.5 19 22.5q6 9 16.5 12t25.5-7q16-10 17-20.5t-5-21.5q-13-22-32.5-42t-45-32-56.5-12zm133 685q-20 0-34 13t-14 38q0 27 17.5 51t54.5 24q21 0 35-12.5t14-38.5q0-27-17.5-51t-55.5-24z"/><path transform="translate(60.074 20.328) scale(.014 -.014)" d="m167-16q-54 0-76.5 25t-21 67 17.5 95l81 249h-79q-11 0-15 10t1 30q6 20 16 30t21 10h82l64 198q6 20 15.5 26t29.5 6q31 0 39.5-9.5t1.5-29.5l-62-191h126q11 0 15.5-9.5t-1.5-30.5q-5-19-15-29.5t-21-10.5h-129l-95-291q-11-35-5.5-52.5t26.5-17.5q30 0 54 20t41 41q6 9 16.5 12t25.5-7q17-10 18-20t-5-21q-12-20-34.5-44t-55-40-76.5-16z"/><path transform="translate(65.506 20.328) scale(.014 -.014)" d="m248-18q-34 0-65 11.5t-56 33-43.5 51.5-28 66.5-9.5 77.5q0 39 9 80t27.5 80 46.5 69.5 66 49 86 18.5q39 0 66.5-15.5t41.5-42 14-60.5q0-57-27-110t-71.5-99-96.5-82q-54-39-114.5-67.5t-119.5-44-111-15.5q-14 0-20 11.5t-3.5 26 14 26 32.5 11.5q44 0 93 15t98 41 91 59q36 27 69 61t54.5 72 21.5 76q0 28-12 42.5t-39 14.5q-31 0-54.5-21.5t-40-54.5-24.5-69.5-8-66.5q0-37 10-67.5t28-52.5 41.5-33.5 49.5-11.5 50.5 9.5 47.5 26.5 45 36q14 13 27 10.5t24-13.5q13-12 15-25.5t-11-26.5q-33-34-68-56t-71.5-31.5-74.5-9.5z"/><path transform="translate(75.922 20.328) scale(.014 -.014)" d="m481-19q-75 0-135 25.5t-103 74-66 116.5-23 152q0 72 17 150t50.5 155 83 145.5 114.5 121.5 145 83.5 175 30.5q64 0 116-13.5t93-40.5 67-67q9-12 4.5-21.5t-19.5-21.5q-14-10-24.5-9.5t-24.5 13.5q-35 36-91 55.5t-135 19.5q-70 0-132.5-25.5t-116-69.5-95.5-101.5-71.5-123.5-45.5-134-16-133q0-72 15.5-127t46.5-93 77-57.5 108-19.5q41 0 77 11t69.5 31.5 68 50 71.5 67.5q12 12 24 9t23-16q13-14 14.5-25t-10.5-24q-66-71-127.5-112.5t-117-59-106.5-17.5z"/><path transform="translate(88.158 20.328) scale(.014 -.014)" d="m484-19q-83 0-147 26t-108 75-66.5 118-22.5 155q0 68 14 139t40.5 139.5 64.5 130.5 85.5 113.5 104.5 87.5q27 17 40.5 14.5t23.5-17.5q13-18 9-32t-29-30q-49-34-90-80.5t-72.5-101.5-53.5-115-33-123-11-124q0-67 16.5-120.5t49.5-91.5 81.5-58 113.5-20q67 0 130 25t118 70 100 105 77 130.5 49.5 147 17.5 153.5q0 66-11.5 114.5t-35 80-57 46-77.5 14.5q-37 0-70.5-13t-64.5-38-59.5-58.5-53.5-74.5q-13-18-27.5-20.5t-32.5 8.5q-15 9-15 24t11 32q33 52 71 93.5t80 70.5 88 44 96 15q62 0 109-22t78.5-65.5 47.5-106 16-144.5q0-90-21-178.5t-59.5-168.5-92.5-147-120-117-142.5-77.5-159.5-27.5z"/></svg>

<?xml version="1.0" encoding="utf-8" ?>
<svg baseProfile="tiny" height="100%" version="1.2" width="100%" xmlns="http://www.w3.org/2000/svg" xmlns:ev="http://www.w3.org/2001/xml-events" xmlns:xlink="http://www.w3.org/1999/xlink"><defs /><g><path d="M474 385Q454 384 446.5 395.0Q439 406 443 429Q447 449 457.0 458.5Q467 468 485 468Q584 473 665.5 500.5Q747 528 806.5 575.5Q866 623 898.0 684.5Q930 746 930 818Q930 881 896.0 916.5Q862 952 800 952Q763 952 722.5 935.0Q682 918 642.5 886.5Q603 855 565.5 809.5Q528 764 495.5 707.5Q463 651 438 586L253 14Q249 0 237.0 -7.0Q225 -14 202 -14Q180 -14 169.5 -7.0Q159 0 163 16L419 805Q395 781 367.0 760.0Q339 739 308.5 721.0Q278 703 244 685Q222 675 208.5 682.5Q195 690 188 710Q181 728 186.5 741.5Q192 755 212 763Q279 795 329.0 829.5Q379 864 416.5 908.0Q454 952 482 1007Q491 1023 501.5 1029.0Q512 1035 535 1035Q557 1035 567.5 1028.0Q578 1021 573 1005L533 879Q577 931 625.5 965.5Q674 1000 724.5 1017.5Q775 1035 824 1035Q884 1035 928.0 1009.0Q972 983 996.5 936.5Q1021 890 1021 828Q1021 735 980.5 656.0Q940 577 867.0 518.0Q794 459 694.0 424.0Q594 389 474 385Z" transform="translate(0.0, 72) scale(0.072, -0.072)" /><path d="M-147 -17Q-166 -17 -172.0 -5.5Q-178 6 -174.5 20.5Q-171 35 -158.5 46.5Q-146 58 -128 58Q-97 58 -56.5 78.0Q-16 98 29.5 134.5Q75 171 123.0 219.0Q171 267 218.0 324.5Q265 382 309.0 443.5Q353 505 390.0 567.5Q427 630 455.0 689.5Q483 749 498.5 802.5Q514 856 514 899Q514 914 527.0 921.5Q540 929 557.5 929.0Q575 929 588.0 921.5Q601 914 601 899Q601 854 584.0 796.5Q567 739 535.0 674.5Q503 610 460.5 541.5Q418 473 368.0 405.5Q318 338 263.5 276.0Q209 214 153.5 160.5Q98 107 44.0 67.0Q-10 27 -58.5 5.0Q-107 -17 -147 -17ZM172 -16Q129 -16 107.5 -0.5Q86 15 80.0 41.0Q74 67 78.5 99.0Q83 131 93 163L322 870Q351 959 392.5 999.0Q434 1039 492 1039Q526 1039 550.5 1021.5Q575 1004 588.0 973.0Q601 942 601 899Q601 880 588.0 871.0Q575 862 557.5 862.0Q540 862 527.0 871.0Q514 880 514 899Q514 917 510.0 929.5Q506 942 498.0 948.5Q490 955 477 955Q466 955 454.0 946.0Q442 937 430.0 916.5Q418 896 406 858L167 115Q163 102 161.0 89.0Q159 76 164.0 67.5Q169 59 183 59Q197 59 209.0 66.0Q221 73 231.5 84.5Q242 96 250 107Q255 116 265.5 119.0Q276 122 291 112Q308 102 308.5 91.5Q309 81 304 70Q294 53 275.5 32.5Q257 12 231.0 -2.0Q205 -16 172 -16Z" transform="translate(63.647999999999996, 72) scale(0.072, -0.072)" /><path d="M180 -17Q137 -17 106.0 2.5Q75 22 58.5 59.0Q42 96 42 146Q42 190 54.5 241.0Q67 292 92.5 341.0Q118 390 156.5 430.5Q195 471 247.0 495.0Q299 519 365 519Q398 519 430.0 509.0Q462 499 490 482L491 486Q498 504 507.5 509.5Q517 515 535 515Q567 515 575.0 505.5Q583 496 577 476L458 115Q454 102 452.0 89.0Q450 76 455.0 67.5Q460 59 475 59Q488 59 500.0 66.0Q512 73 522.5 84.5Q533 96 541 107Q547 116 557.5 119.0Q568 122 583 112Q599 102 600.0 91.5Q601 81 595 70Q586 53 567.5 32.5Q549 12 523.0 -2.0Q497 -16 464 -16Q433 -16 414.0 -7.0Q395 2 385.5 17.0Q376 32 373.0 51.0Q370 70 372 90Q372 93 372.0 95.5Q372 98 373 100Q338 56 303.0 30.0Q268 4 236.5 -6.5Q205 -17 180 -17ZM132 157Q132 126 140.5 105.5Q149 85 166.5 74.0Q184 63 208 63Q242 63 277.0 85.5Q312 108 347.0 151.0Q382 194 415 253L468 415Q441 430 416.0 435.0Q391 440 366 440Q316 440 277.0 421.0Q238 402 210.5 370.0Q183 338 165.5 300.0Q148 262 140.0 224.5Q132 187 132 157Z" transform="translate(92.01599999999999, 72) scale(0.072, -0.072)" /><path d="M422 -15Q441 -3 460.0 8.0Q479 19 497.5 29.0Q516 39 533.0 47.5Q550 56 564 62Q579 69 588.0 61.5Q597 54 600.0 40.5Q603 27 599.5 14.0Q596 1 584 -5Q565 -14 544.0 -26.0Q523 -38 500.5 -50.0Q478 -62 456.5 -75.5Q435 -89 413 -102ZM127 -539Q67 -539 32.0 -505.5Q-3 -472 -3 -420Q-3 -375 15.0 -335.0Q33 -295 67.0 -257.5Q101 -220 148.0 -184.0Q195 -148 252 -113Q271 -101 289.5 -89.5Q308 -78 326.5 -67.0Q345 -56 364 -45L410 98Q387 71 362.5 49.0Q338 27 312.0 13.0Q286 -1 260.0 -8.5Q234 -16 209 -16Q155 -16 123.5 8.0Q92 32 84.5 76.5Q77 121 97 181L167 398Q173 419 167.5 430.0Q162 441 146 441Q132 441 119.0 433.0Q106 425 91.5 407.5Q77 390 60 361Q51 348 43.0 343.0Q35 338 16 341Q-4 346 -7.5 359.0Q-11 372 -4 387Q14 423 37.5 452.5Q61 482 91.0 499.0Q121 516 157 516Q190 516 211.5 504.5Q233 493 243.5 472.0Q254 451 253.5 423.5Q253 396 243 365L183 175Q171 137 172.0 112.0Q173 87 189.5 74.5Q206 62 240 62Q266 62 295.5 77.0Q325 92 355.5 120.0Q386 148 414.0 186.0Q442 224 466 271L534 483Q541 503 550.5 509.0Q560 515 579 515Q610 515 618.5 505.5Q627 496 620 476L377 -271Q353 -344 327.5 -395.0Q302 -446 272.0 -478.0Q242 -510 206.5 -524.5Q171 -539 127 -539ZM141 -462Q171 -462 198.5 -440.5Q226 -419 250.0 -376.0Q274 -333 292 -269L331 -147Q321 -153 310.5 -159.5Q300 -166 290.5 -172.0Q281 -178 272 -184Q228 -213 193.0 -241.5Q158 -270 134.0 -297.5Q110 -325 97.5 -352.0Q85 -379 85 -407Q85 -425 91.5 -437.5Q98 -450 111.0 -456.0Q124 -462 141 -462Z" transform="translate(136.79999999999998, 72) scale(0.072, -0.072)" /><path d="M184 -19Q136 -19 108.0 -0.5Q80 18 69.0 48.0Q58 78 60.0 114.5Q62 151 74 188L170 483Q177 502 186.0 508.5Q195 515 216 515Q247 515 255.0 505.5Q263 496 257 477L161 182Q152 155 149.0 126.5Q146 98 158.0 79.0Q170 60 207 60Q227 60 249.5 69.5Q272 79 294.0 98.0Q316 117 336.0 144.0Q356 171 371 207L461 483Q468 502 477.0 508.5Q486 515 506 515Q538 515 545.5 506.0Q553 497 547 478L470 234Q461 205 451.5 174.5Q442 144 441.0 118.0Q440 92 454.0 76.5Q468 61 503 61Q541 61 573.5 80.5Q606 100 631.5 133.5Q657 167 675.5 207.5Q694 248 703.5 290.5Q713 333 713 370Q713 387 712.0 403.0Q711 419 709.0 434.5Q707 450 703 464Q700 482 703.5 494.0Q707 506 718.0 512.5Q729 519 746 519Q763 519 773.5 507.5Q784 496 790 470Q794 455 796.5 438.5Q799 422 800.0 405.0Q801 388 801 370Q801 325 788.0 272.5Q775 220 748.5 168.5Q722 117 684.5 74.5Q647 32 598.0 6.5Q549 -19 490 -19Q446 -19 417.5 -6.0Q389 7 375.0 29.5Q361 52 357 80Q336 48 309.5 25.5Q283 3 251.5 -8.0Q220 -19 184 -19Z" transform="translate(184.67999999999998, 72) scale(0.072, -0.072)" /><path d="M-148 -17Q-167 -17 -173.0 -5.5Q-179 6 -175.5 20.5Q-172 35 -159.5 46.5Q-147 58 -128 58Q-94 58 -59.0 81.5Q-24 105 13.0 153.0Q50 201 87.5 272.5Q125 344 163 441L220 415Q173 294 129.5 211.0Q86 128 42.5 77.5Q-1 27 -47.5 5.0Q-94 -17 -148 -17ZM409 -16Q371 -16 349.0 -4.0Q327 8 318.5 29.0Q310 50 312.0 76.0Q314 102 322 129Q330 153 343.0 183.5Q356 214 371.0 248.0Q386 282 399.5 316.0Q413 350 422 380Q430 409 422.0 419.0Q414 429 397 429Q372 429 341.0 419.0Q310 409 277.0 399.5Q244 390 214 390Q192 390 177.0 404.5Q162 419 154.5 441.0Q147 463 147 488Q147 512 155.0 534.0Q163 556 178.5 570.5Q194 585 217 585Q241 585 252.0 571.0Q263 557 263 538Q263 522 257.5 503.0Q252 484 242 469Q260 469 291.0 480.0Q322 491 359.0 502.0Q396 513 431 513Q460 513 481.5 499.5Q503 486 511.0 455.0Q519 424 505 372Q497 344 483.5 310.0Q470 276 454.5 240.5Q439 205 424.5 171.0Q410 137 401 107Q393 81 398.5 70.0Q404 59 420 59Q434 59 446.0 66.0Q458 73 468.0 84.5Q478 96 486 107Q492 116 502.5 119.0Q513 122 528 112Q544 102 545.0 91.5Q546 81 540 70Q531 53 512.5 32.5Q494 12 468.0 -2.0Q442 -16 409 -16Z" transform="translate(246.45599999999996, 72) scale(0.072, -0.072)" /><path d="M142 -16Q78 -16 56.5 28.5Q35 73 61 152L168 483Q175 503 184.5 509.0Q194 515 213 515Q244 515 252.5 505.5Q261 496 254 476L138 119Q129 90 133.5 74.5Q138 59 156 59Q169 59 181.0 66.0Q193 73 203.0 84.5Q213 96 222 107Q228 116 238.5 119.0Q249 122 264 112Q280 102 281.0 91.5Q282 81 276 70Q263 48 243.5 28.0Q224 8 198.5 -4.0Q173 -16 142 -16ZM275 669Q255 669 241.0 682.0Q227 695 227 720Q227 747 244.5 771.0Q262 795 299 795Q320 795 334.0 782.5Q348 770 348 744Q348 717 330.5 693.0Q313 669 275 669Z" transform="translate(287.352, 72) scale(0.072, -0.072)" /><path d="M167 -16Q113 -16 90.5 9.0Q68 34 69.5 76.0Q71 118 87 171L168 420H89Q78 420 74.0 430.0Q70 440 75 460Q81 480 91.0 490.0Q101 500 112 500H194L258 698Q264 718 273.5 724.0Q283 730 303 730Q334 730 342.5 720.5Q351 711 344 691L282 500H408Q419 500 423.5 490.5Q428 481 422 460Q417 441 407.0 430.5Q397 420 386 420H257L162 129Q151 94 156.5 76.5Q162 59 183 59Q213 59 237.0 79.0Q261 99 278 120Q284 129 294.5 132.0Q305 135 320 125Q337 115 338.0 105.0Q339 95 333 84Q321 64 298.5 40.0Q276 16 243.5 0.0Q211 -16 167 -16Z" transform="translate(308.952, 72) scale(0.072, -0.072)" /><path d="M248 -18Q214 -18 183.0 -6.5Q152 5 127.0 26.5Q102 48 83.5 78.0Q65 108 55.5 144.5Q46 181 46 222Q46 261 55.0 302.0Q64 343 82.5 382.0Q101 421 129.0 451.5Q157 482 195.0 500.5Q233 519 281 519Q320 519 347.5 503.5Q375 488 389.0 461.5Q403 435 403 401Q403 344 376.0 291.0Q349 238 304.5 192.0Q260 146 208 110Q154 71 93.5 42.5Q33 14 -26.0 -1.5Q-85 -17 -137 -17Q-151 -17 -157.0 -5.5Q-163 6 -160.5 20.5Q-158 35 -146.5 46.5Q-135 58 -114 58Q-70 58 -21.0 73.0Q28 88 77.0 114.0Q126 140 168 173Q204 200 237.0 234.0Q270 268 291.5 306.0Q313 344 313 382Q313 410 301.0 424.5Q289 439 262 439Q231 439 207.5 417.5Q184 396 167.5 363.0Q151 330 143.0 293.5Q135 257 135 227Q135 190 145.0 159.5Q155 129 173.0 107.0Q191 85 214.5 73.5Q238 62 264 62Q290 62 314.5 71.5Q339 81 362.0 98.0Q385 115 407 134Q421 147 434.0 144.5Q447 142 458 131Q471 119 473.0 105.5Q475 92 462 79Q429 45 394.0 23.0Q359 1 322.5 -8.5Q286 -18 248 -18Z" transform="translate(336.888, 72) scale(0.072, -0.072)" /><path d="M481 -19Q406 -19 346.0 6.5Q286 32 243.0 80.5Q200 129 177.0 197.0Q154 265 154 349Q154 421 171.0 499.0Q188 577 221.5 654.0Q255 731 304.5 799.5Q354 868 419.0 921.0Q484 974 564.0 1004.5Q644 1035 739 1035Q803 1035 855.0 1021.5Q907 1008 948.0 981.0Q989 954 1015 914Q1024 902 1019.5 892.5Q1015 883 1000 871Q986 861 975.5 861.5Q965 862 951 875Q916 911 860.0 930.5Q804 950 725 950Q655 950 592.5 924.5Q530 899 476.5 855.0Q423 811 381.0 753.5Q339 696 309.5 630.0Q280 564 264.0 496.0Q248 428 248 363Q248 291 263.5 236.0Q279 181 310.0 143.0Q341 105 387.0 85.5Q433 66 495 66Q536 66 572.0 77.0Q608 88 641.5 108.5Q675 129 709.5 158.5Q744 188 781 226Q793 238 805.0 235.0Q817 232 828 219Q841 205 842.5 194.0Q844 183 832 170Q766 99 704.5 57.5Q643 16 587.5 -1.5Q532 -19 481 -19Z" transform="translate(390.456, 72) scale(0.072, -0.072)" /><path d="M484 -19Q401 -19 337.0 7.0Q273 33 229.0 82.0Q185 131 162.5 200.0Q140 269 140 355Q140 423 154.0 494.0Q168 565 194.5 633.5Q221 702 259.0 764.0Q297 826 344.5 877.5Q392 929 449 965Q476 982 489.5 979.5Q503 977 513 962Q526 944 522.0 930.0Q518 916 493 900Q444 866 403.0 819.5Q362 773 330.5 718.0Q299 663 277.0 603.0Q255 543 244.0 480.0Q233 417 233 356Q233 289 249.5 235.5Q266 182 299.0 144.0Q332 106 380.5 86.0Q429 66 494 66Q561 66 624.0 91.0Q687 116 742.0 161.0Q797 206 842.0 266.0Q887 326 919.0 396.5Q951 467 968.5 543.5Q986 620 986 697Q986 763 974.5 811.5Q963 860 939.5 891.5Q916 923 882.5 937.5Q849 952 805 952Q768 952 734.5 939.0Q701 926 670.0 901.0Q639 876 610.5 842.5Q582 809 557 768Q544 750 529.5 747.5Q515 745 497 756Q482 765 482.0 780.0Q482 795 493 812Q526 864 564.0 905.5Q602 947 644.0 976.0Q686 1005 732.0 1020.0Q778 1035 828 1035Q890 1035 937.0 1013.0Q984 991 1015.5 947.5Q1047 904 1063.0 841.5Q1079 779 1079 697Q1079 607 1058.0 518.5Q1037 430 998.5 350.0Q960 270 906.0 203.0Q852 136 786.0 86.0Q720 36 643.5 8.5Q567 -19 484 -19Z" transform="translate(453.384, 72) scale(0.072, -0.072)" /></g></svg>
